!!!COM: Haydn, Franz Joseph
!!!ONM: Opus 09, No. 2
!!!OTL: Maestoso 
!!!OMV: 2
!!!SCT: H /disk/dos2/musedata_2000/haydn/traut/quart/op09n2/stage1/02
!!!SCA: Thematisch-bibliographisches Werkevererzeichnis (A. van Hoboken)
!!!YOR: Trautwein Edition
!!!EED: Frances Bennion
!!!ENC: Frances Bennion
!!!CDT: 1732/3/31/-1809/5/31/
!!!OCY: Österreich
!!!YEC: Copyright (c) 1994, 2000 Center for Computer Assisted Research in the Humanities
!!!YEM: Rights to all derivative editions reserved.
!!!YEM: Refer to licensing agreement for further details.
!!!YEN: United States of America
**kern	**kern	**kern	**kern
*k[b-e-a-]	*k[b-e-a-]	*k[b-e-a-]	*k[b-e-a-]
*E-:	*E-:	*E-:	*E-:
*clefG	*clefG	*clefC3	*clefF4
*M3/4	*M3/4	*M3/4	*M3/4
*tb16	*tb16	*tb16	*tb16
=1	=1	=1	=1
2b-	2.g	4e-	4e-
.	.	4e-	4e-
8cc	.	4e-	4e-
8b-	.	.	.
=2	=2	=2	=2
4b-	2.f	4d	4d
4b-	.	4d	4d
4b-	.	4d	4d
=3	=3	=3	=3
4ee-	2g	4c	4c
4ee-	.	4e-	4c
4ee-	4a	4f	4c
=4	=4	=4	=4
2ee-	2a	2.f	[2.B-
4dd	4b-	.	.
=5	=5	=5	=5
2cc	4g	4e	4B-]
.	2a-	2f	[2A-
4ff	.	.	.
=6	=6	=6	=6
2b-	4f	4d	4A-]
.	2g	2e-	[2G
4ee-	.	.	.
=7	=7	=7	=7
4a-	4e-	2c	4G]
4a-	4d	.	4F
4a-	4e-	4c-	4E-
=8	=8	=8	=8
4a-	2f	2.B-	2D
8A-	.	.	.
16G	.	.	.
16A-	.	.	.
8G	4e-	.	4E-
8e-	.	.	.
=9	=9	=9	=9
8B	2c	2c	2AA-
8c	.	.	.
4.a-	.	.	.
.	4A-	4F	4BB-
16f	.	.	.
16d	.	.	.
=10	=10	=10	=10
4e-	4G	4G	4E-
2r	2r	2r	4BB-
.	.	.	4EE-
=11	=11	=11	=11
2gg	2.b-	[2.g	4e-
.	.	.	4e-
8aa-	.	.	4e-
8gg	.	.	.
=12	=12	=12	=12
4ff	2.b	2.g]	4d
4ff	.	.	4d
4ff	.	.	4d
=13	=13	=13	=13
2ee-	4cc	4g	4c
.	4g	4e-	4c
8ff	4g	4e-	4c
8ee-	.	.	.
=14	=14	=14	=14
4dd-	2.g	2.e-	[2.B-
4dd-	.	.	.
4dd-	.	.	.
=15	=15	=15	=15
2cc	4g	4e	4B-]
.	2a-	2f	[2A-
4ff	.	.	.
=16	=16	=16	=16
2b-	4f	4d	4A-]
.	2g	2e-	[2G
4ee-	.	.	.
=17	=17	=17	=17
4a-	4e-	2c	4G]
4a-	4d	.	4F
4a-	4e-	4c-	4E-
=18	=18	=18	=18
4a-	2f	2.B-	2D
8A-	.	.	.
16G	.	.	.
16A-	.	.	.
8G	4e-	.	4E-
8e-	.	.	.
=19	=19	=19	=19
8B	2c	2c	2AA-
8c	.	.	.
4.a-	.	.	.
.	4A-	4F	4BB-
16f	.	.	.
16d	.	.	.
=20	=20	=20	=20
4e-	4G	4G	4E-
2r	2r	2r	4BB-
.	.	.	4EE-
=21	=21	=21	=21
2b-	2.r	2.r	2.r
12ee-	.	.	.
12dd	.	.	.
12cc	.	.	.
=22	=22	=22	=22
12b-	2.r	2.r	2.r
12a-	.	.	.
12g	.	.	.
12f	.	.	.
12e-	.	.	.
12d	.	.	.
12c	.	.	.
12B-	.	.	.
12A-	.	.	.
=23	=23	=23	=23
4G	4r	4r	4r
4e-	4B-	4G	4G
4e	4B-	4G	4G
=24	=24	=24	=24
4f	4c	4A-	4A-
2r	2r	2r	2r
=25	=25	=25	=25
2cc	2.r	2.r	2.r
12aa-	.	.	.
12gg	.	.	.
12ff	.	.	.
=26	=26	=26	=26
12ccc	2r	2r	2r
12bb-	.	.	.
12aa-	.	.	.
12gg	.	.	.
12ff	.	.	.
12ee-	.	.	.
12dd	4b-	12f	4A-
12ee-	.	12e-	.
12ff	.	12d	.
=27	=27	=27	=27
4ee-	4b-	4e-	4G
4g	4e-	4B-	4B-
4f	4d	4B-	4BB-
=28	=28	=28	=28
2e-	2e-	4e-	4E-
.	.	4B-	4BB-
4r	4r	4E-	4EE-
=29	=29	=29	=29
2b-	2.r	2.r	[2.BB-
12g	.	.	.
12a-	.	.	.
12b-	.	.	.
=30	=30	=30	=30
12a-	2r	2B-	2.BB-_
12g	.	.	.
12f	.	.	.
12e-	.	.	.
12d	.	.	.
12c	.	.	.
12B-	12dd	12A-	.
12c	12ee-	12G	.
12d	12ff	12F	.
=31	=31	=31	=31
12e-	4ee-	12G	2.BB-_
12f	.	12F	.
12g	.	12E-	.
12f	4b-	12D	.
12g	.	12E-	.
12a-	.	12F	.
12g	4b-	12E-	.
12a-	.	12F	.
12b-	.	12G	.
=32	=32	=32	=32
12a-	2b-	12F	2.BB-_
12g	.	12G	.
12f	.	12A-	.
12e-	.	4B-	.
12d	.	.	.
12c	.	.	.
12B-	12dd	12A-	.
12c	12ee-	12G	.
12d	12ff	12F	.
=33	=33	=33	=33
12e-	4ee-	12G	2.BB-]
12f	.	12F	.
12g	.	12E-	.
12f	4b-	12D	.
12g	.	12E-	.
12a-	.	12F	.
12g	12b-	12E-	.
12a-	12a-	12F	.
12b-	12g	12G	.
=34	=34	=34	=34
4cc	4cc	4A-	4AA-
4r	2r	2r	2r
4ccc	.	.	.
=35	=35	=35	=35
4ee	4b-	4g	2.r
4ff	4cc	4a-	.
4bb-	4r	4r	.
=36	=36	=36	=36
4dd	4a-	4f	2.r
4ee-	4b-	4g	.
4gg	4r	4r	.
=37	=37	=37	=37
4a	4e-	4c	2.r
4b-	4f	4d	.
4r	4r	4r	.
=38	=38	=38	=38
2A-	2A-	2A-	2AA-
12c	12c	12c	12C
12B-	12B-	12B-	12BB-
12A-	12A-	12A-	12AA-
=39	=39	=39	=39
12G	4G	4G	4GG
12A-	.	.	.
12B-	.	.	.
12c	2r	2r	2r
12d	.	.	.
12e-	.	.	.
12f	.	.	.
12g	.	.	.
12a-	.	.	.
=40	=40	=40	=40
12b-	2r	2r	2r
12cc	.	.	.
12dd	.	.	.
12ee-	.	.	.
12ff	.	.	.
12gg	.	.	.
12ff	4b-	12d	4A-
12ee-	.	12e-	.
12dd	.	12f	.
=41	=41	=41	=41
4ee-	4b-	4e-	4G
4g	4e-	4B-	4B-
4f	4d	4B-	4BB-
=42	=42	=42	=42
2e-	2e-	4e-	4E-
.	.	4B-	4BB-
4r	4r	4E-	4EE-
==	==	==	==
*-	*-	*-	*-
!!!RWG1: This file contains only pitch and duration data.
!!!RWG2: Transposing instruments are not transposed.
!!!RWG3: Spines may have incompatible meters.
!!!RWG4: Durations of rests and tied notes may be interpreted.
!!!RWG: Key is interpreted using the Humdrum key tool.
!!!AFT: stage1
!!!END: 1997/04/15
!!format changes:
!!content changes:
!!public access: complete
!!!KEY: 877737503
!!!EMD: Converted from MuseData to Humdrum Dec 16, 2000, by Andreas Kornstaedt using muse2kern.
